svg/Pictogram/pictograms-hazard_signs-xtremely_flammable.svg

<?xml version="1.0" encoding="UTF-8" standalone="no"?>
<!-- Created with Inkscape (http://www.inkscape.org/) --><svg height="155.93201" id="svg2" inkscape:export-filename="/home/yves/Bureau/risk/extremement inflammable.svg.png" inkscape:export-xdpi="196" inkscape:export-ydpi="196" inkscape:output_extension="org.inkscape.output.svg.inkscape" inkscape:version="0.45+devel" sodipodi:docname="extremement inflammable.svg" sodipodi:version="0.32" version="1.0" width="155.93201" xmlns="http://www.w3.org/2000/svg" xmlns:cc="http://creativecommons.org/ns#" xmlns:dc="http://purl.org/dc/elements/1.1/" xmlns:inkscape="http://www.inkscape.org/namespaces/inkscape" xmlns:rdf="http://www.w3.org/1999/02/22-rdf-syntax-ns#" xmlns:sodipodi="http://sodipodi.sourceforge.net/DTD/sodipodi-0.dtd" xmlns:svg="http://www.w3.org/2000/svg">
  <metadata>
    <rdf:RDF xmlns:cc="http://web.resource.org/cc/" xmlns:dc="http://purl.org/dc/elements/1.1/" xmlns:rdf="http://www.w3.org/1999/02/22-rdf-syntax-ns#">
      <cc:Work rdf:about="">
        <dc:title></dc:title>
        <dc:description></dc:description>
        <dc:subject>
          <rdf:Bag>
            <rdf:li>unsorted</rdf:li>
          </rdf:Bag>
        </dc:subject>
        <dc:publisher>
          <cc:Agent rdf:about="http://www.openclipart.org/">
            <dc:title>Source: Open Clip Art Library, Source: Open Clip Art Library, Source: Open Clip Art Library</dc:title>
          </cc:Agent>
        </dc:publisher>
        <dc:creator>
          <cc:Agent>
            <dc:title>yves guillou</dc:title>
          </cc:Agent>
        </dc:creator>
        <dc:rights>
          <cc:Agent>
            <dc:title>yves guillou</dc:title>
          </cc:Agent>
        </dc:rights>
        <dc:date></dc:date>
        <dc:format>image/svg+xml</dc:format>
        <dc:type rdf:resource="http://purl.org/dc/dcmitype/StillImage"/>
        <cc:license rdf:resource="http://en.wikipedia.org/wiki/Public_domain"/>
        <dc:language>French</dc:language>
      </cc:Work>
    </rdf:RDF>
  </metadata>
  <defs id="defs4">
    <inkscape:perspective id="perspective87" inkscape:persp3d-origin="300 : 400 : 1" inkscape:vp_x="-50 : 600 : 1" inkscape:vp_y="0 : 1000 : 0" inkscape:vp_z="700 : 600 : 1" sodipodi:type="inkscape:persp3d"/>
    <inkscape:perspective id="perspective233" inkscape:persp3d-origin="300 : 400 : 1" inkscape:vp_x="-50 : 600 : 1" inkscape:vp_y="0 : 1000 : 0" inkscape:vp_z="700 : 600 : 1" sodipodi:type="inkscape:persp3d"/>
    <inkscape:perspective id="perspective10" inkscape:persp3d-origin="300 : 400 : 1" inkscape:vp_x="-50 : 600 : 1" inkscape:vp_y="0 : 1000 : 0" inkscape:vp_z="700 : 600 : 1" sodipodi:type="inkscape:persp3d"/>
    <marker id="ArrowStart" markerHeight="3" markerUnits="strokeWidth" markerWidth="4" orient="auto" refX="10" refY="5" viewBox="0 0 10 10">
      <path d="M 10,0 L 0,5 L 10,10 L 10,0 z" id="path1463"/>
    </marker>
    <marker id="ArrowEnd" markerHeight="3" markerUnits="strokeWidth" markerWidth="4" orient="auto" refX="0" refY="5" viewBox="0 0 10 10">
      <path d="M 0,0 L 10,5 L 0,10 L 0,0 z" id="path1461"/>
    </marker>
    <inkscape:perspective id="perspective2379" inkscape:persp3d-origin="300 : 400 : 1" inkscape:vp_x="-50 : 600 : 1" inkscape:vp_y="0 : 1000 : 0" inkscape:vp_z="700 : 600 : 1" sodipodi:type="inkscape:persp3d"/>
    <inkscape:perspective id="perspective2416" inkscape:persp3d-origin="300 : 400 : 1" inkscape:vp_x="-50 : 600 : 1" inkscape:vp_y="0 : 1000 : 0" inkscape:vp_z="700 : 600 : 1" sodipodi:type="inkscape:persp3d"/>
    <marker id="marker2474" markerHeight="3" markerUnits="strokeWidth" markerWidth="4" orient="auto" refX="10" refY="5" viewBox="0 0 10 10">
      <path d="M 10,0 L 0,5 L 10,10 L 10,0 z" id="path6"/>
    </marker>
    <marker id="marker2471" markerHeight="3" markerUnits="strokeWidth" markerWidth="4" orient="auto" refX="0" refY="5" viewBox="0 0 10 10">
      <path d="M 0,0 L 10,5 L 0,10 L 0,0 z" id="path4"/>
    </marker>
    <inkscape:perspective id="perspective2468" inkscape:persp3d-origin="300 : 400 : 1" inkscape:vp_x="-50 : 600 : 1" inkscape:vp_y="0 : 1000 : 0" inkscape:vp_z="700 : 600 : 1" sodipodi:type="inkscape:persp3d"/>
    <marker id="marker2553" markerHeight="3" markerUnits="strokeWidth" markerWidth="4" orient="auto" refX="10" refY="5" viewBox="0 0 10 10">
      <path d="M 10,0 L 0,5 L 10,10 L 10,0 z" id="path2555"/>
    </marker>
    <marker id="marker2549" markerHeight="3" markerUnits="strokeWidth" markerWidth="4" orient="auto" refX="0" refY="5" viewBox="0 0 10 10">
      <path d="M 0,0 L 10,5 L 0,10 L 0,0 z" id="path2551"/>
    </marker>
    <inkscape:perspective id="perspective2546" inkscape:persp3d-origin="300 : 400 : 1" inkscape:vp_x="-50 : 600 : 1" inkscape:vp_y="0 : 1000 : 0" inkscape:vp_z="700 : 600 : 1" sodipodi:type="inkscape:persp3d"/>
    <marker id="marker2657" markerHeight="3" markerUnits="strokeWidth" markerWidth="4" orient="auto" refX="10" refY="5" viewBox="0 0 10 10">
      <path d="M 10,0 L 0,5 L 10,10 L 10,0 z" id="path2659"/>
    </marker>
    <marker id="marker2653" markerHeight="3" markerUnits="strokeWidth" markerWidth="4" orient="auto" refX="0" refY="5" viewBox="0 0 10 10">
      <path d="M 0,0 L 10,5 L 0,10 L 0,0 z" id="path2655"/>
    </marker>
    <inkscape:perspective id="perspective2650" inkscape:persp3d-origin="300 : 400 : 1" inkscape:vp_x="-50 : 600 : 1" inkscape:vp_y="0 : 1000 : 0" inkscape:vp_z="700 : 600 : 1" sodipodi:type="inkscape:persp3d"/>
    <marker id="marker2751" markerHeight="3" markerUnits="strokeWidth" markerWidth="4" orient="auto" refX="10" refY="5" viewBox="0 0 10 10">
      <path d="M 10,0 L 0,5 L 10,10 L 10,0 z" id="path2753"/>
    </marker>
    <marker id="marker2747" markerHeight="3" markerUnits="strokeWidth" markerWidth="4" orient="auto" refX="0" refY="5" viewBox="0 0 10 10">
      <path d="M 0,0 L 10,5 L 0,10 L 0,0 z" id="path2749"/>
    </marker>
    <inkscape:perspective id="perspective2744" inkscape:persp3d-origin="300 : 400 : 1" inkscape:vp_x="-50 : 600 : 1" inkscape:vp_y="0 : 1000 : 0" inkscape:vp_z="700 : 600 : 1" sodipodi:type="inkscape:persp3d"/>
    <marker id="marker2821" markerHeight="3" markerUnits="strokeWidth" markerWidth="4" orient="auto" refX="10" refY="5" viewBox="0 0 10 10">
      <path d="M 10,0 L 0,5 L 10,10 L 10,0 z" id="path2823"/>
    </marker>
    <marker id="marker2817" markerHeight="3" markerUnits="strokeWidth" markerWidth="4" orient="auto" refX="0" refY="5" viewBox="0 0 10 10">
      <path d="M 0,0 L 10,5 L 0,10 L 0,0 z" id="path2819"/>
    </marker>
    <inkscape:perspective id="perspective2814" inkscape:persp3d-origin="300 : 400 : 1" inkscape:vp_x="-50 : 600 : 1" inkscape:vp_y="0 : 1000 : 0" inkscape:vp_z="700 : 600 : 1" sodipodi:type="inkscape:persp3d"/>
    <inkscape:perspective id="perspective2868" inkscape:persp3d-origin="300 : 400 : 1" inkscape:vp_x="-50 : 600 : 1" inkscape:vp_y="0 : 1000 : 0" inkscape:vp_z="700 : 600 : 1" sodipodi:type="inkscape:persp3d"/>
    <marker id="marker2908" markerHeight="3" markerUnits="strokeWidth" markerWidth="4" orient="auto" refX="10" refY="5" viewBox="0 0 10 10">
      <path d="M 10,0 L 0,5 L 10,10 L 10,0 z" id="path1608"/>
    </marker>
    <marker id="marker2905" markerHeight="3" markerUnits="strokeWidth" markerWidth="4" orient="auto" refX="0" refY="5" viewBox="0 0 10 10">
      <path d="M 0,0 L 10,5 L 0,10 L 0,0 z" id="path1606"/>
    </marker>
    <inkscape:perspective id="perspective2902" inkscape:persp3d-origin="300 : 400 : 1" inkscape:vp_x="-50 : 600 : 1" inkscape:vp_y="0 : 1000 : 0" inkscape:vp_z="700 : 600 : 1" sodipodi:type="inkscape:persp3d"/>
    <marker id="marker2974" markerHeight="3" markerUnits="strokeWidth" markerWidth="4" orient="auto" refX="10" refY="5" viewBox="0 0 10 10">
      <path d="M 10,0 L 0,5 L 10,10 L 10,0 z" id="path2976"/>
    </marker>
    <marker id="marker2970" markerHeight="3" markerUnits="strokeWidth" markerWidth="4" orient="auto" refX="0" refY="5" viewBox="0 0 10 10">
      <path d="M 0,0 L 10,5 L 0,10 L 0,0 z" id="path2972"/>
    </marker>
    <inkscape:perspective id="perspective2967" inkscape:persp3d-origin="300 : 400 : 1" inkscape:vp_x="-50 : 600 : 1" inkscape:vp_y="0 : 1000 : 0" inkscape:vp_z="700 : 600 : 1" sodipodi:type="inkscape:persp3d"/>
    <marker id="marker3069" markerHeight="3" markerUnits="strokeWidth" markerWidth="4" orient="auto" refX="10" refY="5" viewBox="0 0 10 10">
      <path d="M 10,0 L 0,5 L 10,10 L 10,0 z" id="path3071"/>
    </marker>
    <marker id="marker3065" markerHeight="3" markerUnits="strokeWidth" markerWidth="4" orient="auto" refX="0" refY="5" viewBox="0 0 10 10">
      <path d="M 0,0 L 10,5 L 0,10 L 0,0 z" id="path3067"/>
    </marker>
    <inkscape:perspective id="perspective3062" inkscape:persp3d-origin="300 : 400 : 1" inkscape:vp_x="-50 : 600 : 1" inkscape:vp_y="0 : 1000 : 0" inkscape:vp_z="700 : 600 : 1" sodipodi:type="inkscape:persp3d"/>
  </defs>
  <sodipodi:namedview bordercolor="#666666" borderopacity="1.0" id="base" inkscape:current-layer="layer1" inkscape:cx="317.76512" inkscape:cy="93.044394" inkscape:document-units="px" inkscape:guide-bbox="true" inkscape:pageopacity="0.0" inkscape:pageshadow="2" inkscape:window-height="713" inkscape:window-width="1024" inkscape:window-x="0" inkscape:window-y="0" inkscape:zoom="1.4116961" pagecolor="#ffffff" showgrid="false" showguides="true">
    <sodipodi:guide id="guide3093" orientation="-0.70710678,0.70710678" position="-116.17232,1113.5541"/>
  </sodipodi:namedview>
  <g id="layer1" inkscape:groupmode="layer" inkscape:label="Calque 1" transform="translate(-196.31972,-212.6173)">
    <g id="g2559" transform="translate(196.31972,212.6173)">
      <path d="M 155.932,155.932 L 155.932,0 L 0,0 L 0,155.932 L 155.932,155.932 z" id="path2561" style="fill:#000000;stroke:none"/>
      <path d="M 150.83,150.83 L 150.83,5.1011 L 5.1011,5.1011 L 5.1011,150.83 L 150.83,150.83 z" id="path2563" style="fill:#ff9900;stroke:none"/>
    </g>
    <path d="M 275.56682,221.17678 C 275.75432,221.30178 276.75432,221.17678 277.00432,221.17678 C 278.31682,226.1456 277.87932,232.9581 279.87932,237.3643 C 280.09802,237.8643 282.47302,243.0518 283.47302,244.9268 C 283.78552,245.5206 284.97302,246.4893 285.28552,247.0831 C 285.50432,247.5206 287.28552,250.6456 287.44182,251.0518 C 287.69182,251.7393 289.62932,253.8018 289.97302,254.6456 C 290.09802,255.0206 291.44182,256.3643 291.75432,256.8018 C 292.19182,257.3956 292.44182,258.9581 292.84802,259.6768 L 293.91052,259.3331 C 293.56682,256.6456 293.59802,254.4581 292.84802,252.1143 C 292.37932,250.6768 291.72302,249.2081 291.41052,247.0831 C 291.78552,247.2393 292.44182,246.9268 292.84802,247.0831 C 293.06682,247.1768 294.53552,248.2393 295.00432,248.5206 C 295.22302,248.6456 296.47272,249.3643 296.81672,249.6143 C 297.59772,250.1768 299.59772,252.5831 299.69172,252.8331 C 299.81672,253.2081 300.41072,253.9268 300.41072,253.9268 C 300.41072,253.9268 302.87972,257.4581 302.91072,257.5206 C 304.03572,259.7706 305.72272,265.8956 305.81672,266.1768 C 306.34772,268.4893 307.25472,273.0206 307.25472,273.0206 C 308.06672,278.7706 307.25472,283.1768 307.25472,289.2081 C 307.56672,288.9581 307.94172,289.3956 308.31672,289.2081 C 308.53572,289.0831 309.91072,287.7393 310.12972,287.3956 C 310.34772,287.0206 310.84772,285.9581 310.84772,285.9581 C 312.22272,282.3956 311.91072,277.1456 311.91072,272.2706 C 312.44172,272.7081 314.03572,273.2706 314.44172,273.7393 C 314.59772,273.9268 315.62972,275.5831 315.87972,275.8956 C 316.34772,276.4268 318.59772,280.0518 318.75472,280.5518 C 319.00472,281.3643 319.47272,284.1768 319.47272,284.1768 C 320.75472,290.4581 318.97272,298.6456 317.69172,303.6143 C 318.00472,303.5206 318.37972,304.1143 319.12972,303.9581 C 319.28572,303.9268 322.16072,301.8018 322.72272,301.4581 C 323.00472,303.3331 322.78572,305.3018 323.09772,307.5518 C 323.62972,311.9893 325.25472,317.3333 324.53572,323.0513 C 323.72272,329.1763 320.87972,338.0513 317.69172,341.7703 C 317.22272,342.3013 316.00472,343.6453 315.87972,343.9263 C 315.87972,343.9263 314.47272,345.3643 314.09772,345.7393 C 312.81672,346.8013 308.53572,349.7083 307.97272,350.0513 C 307.19172,350.5203 304.16072,352.2703 303.62972,352.5513 C 302.69172,353.0833 299.72272,354.4583 299.31672,354.7393 C 301.50472,354.8953 307.97272,354.4893 309.41072,355.8013 C 309.41072,355.8013 309.25472,358.1453 309.41072,360.1143 C 288.50432,360.1143 267.62932,360.1143 246.75432,360.1143 C 246.75432,356.9893 246.47302,354.0833 248.56682,353.2703 C 248.81682,353.1763 249.44182,353.4583 249.62932,353.2703 C 249.94182,352.9893 249.72302,351.7703 250.00432,351.4893 C 249.19182,350.2703 248.44182,348.9893 247.12932,348.2393 L 244.25432,345.3643 C 244.00432,345.0203 243.53552,343.9263 243.53552,343.9263 C 243.31682,343.5203 242.56682,342.3333 242.44182,342.1143 C 241.62932,340.8333 239.47302,336.6143 239.19182,335.2703 C 239.12932,334.8953 238.12932,309.9581 238.12932,305.0518 C 238.12932,305.0518 238.19182,304.3018 238.12932,303.9581 L 236.69182,300.3643 C 236.41052,300.1143 235.81682,299.3018 235.59802,298.9268 C 235.59802,298.9268 235.03552,298.2393 234.87932,297.8331 C 234.87932,297.8018 232.94182,295.2393 232.72302,294.9581 C 232.00432,294.0518 229.87932,293.1456 229.47302,292.0831 C 229.31682,291.6768 229.72302,291.3643 229.47302,291.0206 C 234.34802,289.5831 238.22302,291.1143 241.72302,293.1768 C 242.03552,293.3643 244.50432,294.7393 245.69182,295.3331 C 246.50432,291.6143 247.37932,285.8643 246.41052,281.2706 C 246.00432,279.4893 244.97302,277.2393 244.25432,275.1768 C 243.78552,273.8956 239.53552,269.2393 239.19182,268.3331 C 238.97302,267.7081 239.41052,267.1456 239.19182,266.5206 C 239.75432,266.3643 239.84802,266.8643 239.91052,266.1768 C 241.94182,266.5518 243.66052,266.2706 245.69182,266.8956 C 246.22302,267.0518 249.03552,268.4893 249.62932,268.6768 C 249.62932,268.6768 254.78552,272.6143 256.47302,274.0831 C 256.72302,274.3018 258.34802,275.5831 259.00432,275.8956 C 260.44182,270.9581 259.91052,258.4893 258.28552,254.6456 C 258.19182,254.4893 257.69182,253.4581 257.56682,253.2081 C 257.47302,253.2081 256.47302,251.6143 256.12932,251.3956 C 256.12932,251.3956 255.37932,249.6143 255.03552,248.5206 C 254.62932,247.2081 253.28552,244.7081 252.53552,243.4893 C 253.72302,243.2081 254.75432,242.8331 255.75432,243.1143 C 256.81682,243.3956 260.59802,245.3331 261.53552,246.0206 C 261.69182,246.1143 263.28552,248.0518 263.31682,248.1768 C 263.31682,248.1768 264.50432,249.1768 265.12932,249.6143 C 266.47302,250.5518 266.91052,252.3018 268.00432,253.5518 C 268.44182,254.0831 269.28552,254.2081 269.81682,254.6456 C 272.62932,250.6456 271.06682,248.8018 270.16052,244.2081 C 268.94182,238.0518 268.16052,228.3643 271.97302,223.6768 C 272.81682,222.61428 274.44182,221.95809 275.56682,221.17678 z M 286.72302,303.9581 C 284.53552,310.0206 282.59802,315.9893 280.25432,321.6143 C 279.94182,322.3333 280.06682,322.8013 279.87932,323.7703 C 278.78552,323.8953 278.66052,323.7393 278.09802,323.3953 C 277.75432,323.2083 275.69182,321.1763 275.56682,320.8953 C 275.41052,320.4893 274.62932,319.7083 274.47302,319.4583 C 274.25432,319.0513 273.78552,318.0203 273.75432,318.0203 C 272.81682,316.5513 272.00432,314.0833 271.28552,312.5206 C 270.97302,312.7083 270.34802,314.3953 270.16052,314.3953 C 269.03552,324.4263 271.97302,329.7393 274.12932,337.0833 C 271.47302,336.9263 267.87932,335.3013 265.66052,333.7703 C 265.50432,333.6763 261.91052,329.0203 260.81682,324.8333 C 260.21962,322.5473 260.22302,320.5833 259.37932,318.3643 L 258.62932,318.0203 C 257.31682,322.5203 256.06682,328.8013 257.19182,334.9263 C 257.28552,335.3333 258.50432,338.8333 259.00432,339.9583 C 259.31682,340.6763 263.81682,346.9583 264.03552,347.1763 C 265.19182,348.1143 267.62932,350.0513 267.62932,350.0513 C 269.62932,350.9893 276.62932,351.3643 279.53552,350.7703 C 279.53552,350.7703 284.03552,349.3333 285.62932,348.2393 C 285.72302,348.1763 289.09802,346.3643 289.97302,345.7393 C 290.56682,345.2703 294.94182,340.9263 295.72302,339.6143 C 296.06682,338.9893 298.78572,335.6453 299.31672,334.9263 C 299.62972,334.4893 300.41072,333.1143 300.41072,333.1143 C 301.53572,331.3643 301.91072,329.2083 302.56672,327.0203 C 299.50472,328.2393 298.75472,329.4263 294.62932,329.8953 C 296.03552,327.2083 300.53572,319.4583 300.03572,315.7703 L 299.31672,314.3953 C 297.56672,317.2393 295.69182,319.5203 293.19182,321.6143 C 292.50432,322.1763 291.47302,323.4583 290.69182,323.7703 C 290.25432,323.9263 289.12932,324.7393 288.87932,324.8333 C 288.47302,324.9893 288.19182,324.6453 287.81682,324.8333 C 288.47302,320.3333 290.16052,315.7083 289.25432,310.0831 C 289.25432,310.0831 288.56682,306.4268 288.16052,305.3956 C 287.94182,304.8331 287.84802,305.0206 287.44182,303.9581 L 286.72302,303.9581 z" id="path2565" style="fill:#000000;stroke:none"/>
  </g>
</svg>

<svg xmlns="http://www.w3.org/2000/svg" viewBox="0 0 155.93 155.93"><g transform="translate(-196.32-212.62)"><g transform="translate(196.32 212.62)"><path d="m155.93 155.93v-155.93h-155.93v155.93h155.93"/><path d="m150.83 150.83v-145.73h-145.73v145.73h145.73" fill="#f90"/></g><path d="m275.57 221.18c.188.125 1.188 0 1.438 0 1.313 4.969.875 11.781 2.875 16.188.219.5 2.594 5.688 3.594 7.563.313.594 1.5 1.563 1.813 2.156.219.438 2 3.563 2.156 3.969.25.688 2.188 2.75 2.531 3.594.125.375 1.469 1.719 1.781 2.156.438.594.688 2.156 1.094 2.875l1.063-.344c-.344-2.688-.313-4.875-1.063-7.219-.469-1.438-1.125-2.906-1.438-5.03.375.156 1.031-.156 1.438 0 .219.094 1.688 1.156 2.156 1.438.219.125 1.468.844 1.812 1.094.781.563 2.781 2.969 2.875 3.219.125.375.719 1.094.719 1.094 0 0 2.469 3.531 2.5 3.594 1.125 2.25 2.812 8.375 2.906 8.656.531 2.313 1.438 6.844 1.438 6.844.812 5.75 0 10.156 0 16.188.312-.25.687.188 1.062 0 .219-.125 1.594-1.469 1.813-1.813.218-.375.718-1.438.718-1.438 1.375-3.563 1.063-8.813 1.063-13.688.531.438 2.125 1 2.531 1.469.156.188 1.188 1.844 1.438 2.156.468.531 2.718 4.156 2.875 4.656.25.813.718 3.625.718 3.625 1.282 6.281-.5 14.469-1.781 19.438.313-.094.688.5 1.438.344.156-.031 3.03-2.156 3.593-2.5.282 1.875.063 3.844.375 6.094.532 4.438 2.157 9.781 1.438 15.5-.813 6.125-3.656 15-6.844 18.719-.469.531-1.687 1.875-1.812 2.156 0 0-1.407 1.438-1.782 1.813-1.281 1.062-5.562 3.969-6.125 4.312-.781.469-3.812 2.219-4.343 2.5-.938.532-3.907 1.907-4.313 2.188 2.188.156 8.656-.25 10.09 1.062 0 0-.156 2.344 0 4.313-20.906 0-41.781 0-62.66 0 0-3.125-.281-6.03 1.813-6.844.25-.094.875.188 1.063 0 .313-.281.094-1.5.375-1.781-.813-1.219-1.563-2.5-2.875-3.25l-2.875-2.875c-.25-.344-.719-1.438-.719-1.438-.219-.406-.969-1.593-1.094-1.812-.813-1.281-2.969-5.5-3.25-6.844-.063-.375-1.063-25.312-1.063-30.22 0 0 .063-.75 0-1.094l-1.438-3.594c-.281-.25-.875-1.063-1.094-1.438 0 0-.563-.688-.719-1.094 0-.031-1.938-2.594-2.156-2.875-.719-.906-2.844-1.813-3.25-2.875-.156-.406.25-.719 0-1.063 4.875-1.438 8.75.094 12.25 2.156.313.188 2.781 1.563 3.969 2.156.813-3.719 1.688-9.469.719-14.06-.406-1.781-1.438-4.03-2.156-6.094-.469-1.281-4.719-5.938-5.063-6.844-.219-.625.219-1.188 0-1.813.563-.156.656.344.719-.344 2.031.375 3.75.094 5.781.719.531.156 3.344 1.594 3.938 1.781 0 0 5.156 3.938 6.844 5.406.25.219 1.875 1.5 2.531 1.813 1.438-4.938.906-17.406-.719-21.25-.094-.156-.594-1.188-.719-1.438-.094 0-1.094-1.594-1.438-1.813 0 0-.75-1.781-1.094-2.875-.406-1.313-1.75-3.813-2.5-5.03 1.188-.281 2.219-.656 3.219-.375 1.063.281 4.844 2.219 5.781 2.906.156.094 1.75 2.031 1.781 2.156 0 0 1.188 1 1.813 1.438 1.344.938 1.781 2.688 2.875 3.938.438.531 1.281.656 1.813 1.094 2.813-4 1.25-5.844.344-10.438-1.219-6.156-2-15.844 1.813-20.531.844-1.063 2.469-1.719 3.594-2.5m11.156 82.78c-2.188 6.06-4.125 12.03-6.469 17.656-.313.719-.188 1.187-.375 2.156-1.094.125-1.219-.031-1.781-.375-.344-.187-2.406-2.219-2.531-2.5-.156-.406-.938-1.187-1.094-1.437-.219-.407-.688-1.438-.719-1.438-.938-1.469-1.75-3.937-2.469-5.5-.313.188-.938 1.875-1.125 1.875-1.125 10.03 1.813 15.344 3.969 22.688-2.656-.157-6.25-1.782-8.469-3.313-.156-.094-3.75-4.75-4.844-8.937-.597-2.286-.594-4.25-1.438-6.469l-.75-.344c-1.313 4.5-2.563 10.781-1.438 16.906.094.407 1.313 3.907 1.813 5.03.313.718 4.813 7 5.03 7.218 1.156.938 3.594 2.875 3.594 2.875 2 .938 9 1.313 11.906.719 0 0 4.5-1.437 6.094-2.531.094-.063 3.469-1.875 4.344-2.5.594-.469 4.969-4.813 5.75-6.125.344-.625 3.063-3.969 3.594-4.688.313-.437 1.094-1.812 1.094-1.812 1.125-1.75 1.5-3.906 2.156-6.094-3.062 1.219-3.812 2.406-7.937 2.875 1.406-2.687 5.906-10.437 5.406-14.12l-.719-1.375c-1.75 2.844-3.625 5.125-6.125 7.219-.688.562-1.719 1.844-2.5 2.156-.438.156-1.563.969-1.813 1.063-.406.156-.688-.188-1.063 0 .656-4.5 2.344-9.125 1.438-14.75 0 0-.688-3.656-1.094-4.688-.219-.563-.313-.375-.719-1.438h-.719"/></g></svg>
